packages/sources/icons/src/vitamix/direction-fill.svg

<svg width="16" height="16" viewBox="0 0 16 16" fill="none" xmlns="http://www.w3.org/2000/svg">
<path fill-rule="evenodd" clip-rule="evenodd" d="M15.0714 7.52865L8.47138 0.92865C8.21104 0.668396 7.78904 0.668396 7.52871 0.92865L0.928711 7.52865C0.668457 7.78898 0.668457 8.21098 0.928711 8.47132L7.52871 15.0713C7.78904 15.3316 8.21104 15.3316 8.47138 15.0713L15.0714 8.47132C15.3316 8.21098 15.3316 7.78898 15.0714 7.52865ZM5.33334 7.33332C5.33334 6.96513 5.63182 6.66665 6.00001 6.66665H8.66667V4.99999L11 7.33332L8.66667 9.66665V7.99999H6.66667V9.99999H5.33334V7.33332Z" fill="#001018"/>
</svg>

<svg width="16" height="16" fill="none" xmlns="http://www.w3.org/2000/svg"><path fill-rule="evenodd" clip-rule="evenodd" d="m15.071 7.529-6.6-6.6a.667.667 0 0 0-.942 0l-6.6 6.6a.667.667 0 0 0 0 .942l6.6 6.6c.26.26.682.26.942 0l6.6-6.6a.667.667 0 0 0 0-.942zm-9.738-.196c0-.368.299-.666.667-.666h2.667V5L11 7.333 8.667 9.667V8h-2v2H5.333V7.333z" fill="#001018"/></svg>
